svg/food/soup_pot_fill.svg

<svg xmlns="http://www.w3.org/2000/svg" width="24" height="24" viewBox="0 0 24 24"><g fill="none"><path d="M24,0 L24,24 L0,24 L0,0 L24,0 Z M12.5935,23.2578 L12.5819,23.2595 L12.5109,23.295 L12.4919,23.2987 L12.4767,23.295 L12.4057,23.2595 C12.3958,23.2564 12.387,23.259 12.3821,23.2649 L12.378,23.2758 L12.3609,23.7031 L12.3659,23.7235 L12.3769,23.7357 L12.4805,23.8097 L12.4953,23.8136 L12.5071,23.8097 L12.6107,23.7357 L12.6233,23.7197 L12.6267,23.7031 L12.6096,23.2758 C12.6076,23.2657 12.601,23.2593 12.5935,23.2578 Z M12.8584,23.1453 L12.8445,23.1473 L12.6598,23.2397 L12.6499,23.2499 L12.6472,23.2611 L12.6651,23.6906 L12.6699,23.7034 L12.6784,23.7105 L12.8793,23.8032 C12.8914,23.8069 12.9022,23.803 12.9078,23.7952 L12.9118,23.7812 L12.8777,23.1665 C12.8753,23.1546 12.8674,23.147 12.8584,23.1453 Z M12.143,23.1473 C12.1332,23.1424 12.1222,23.1453 12.1156,23.1526 L12.1099,23.1665 L12.0758,23.7812 C12.0751,23.7927 12.0828,23.8019 12.0926,23.8046 L12.1083,23.8032 L12.3092,23.7105 L12.3186,23.7024 L12.3225,23.6906 L12.3404,23.2611 L12.3372,23.2485 L12.3278,23.2397 L12.143,23.1473 Z"/><path fill="#09244B" d="M19.4472,4.1059 C19.9059143,4.33524786 20.111301,4.86955449 19.9405396,5.34022191 L19.8944,5.44754 L17.618,10.0003 L19.0434,10.0003 C19.1115429,9.67810857 19.2586653,9.37627551 19.4730542,9.12288082 L19.5858,9.00035 L20.2929,8.29324 C20.6834,7.90272 21.3166,7.90272 21.7071,8.29324 C22.0675615,8.65372923 22.0952893,9.22095645 21.7902834,9.61325152 L21.7071,9.70746 L21,10.4146 L21,17.0003 C21,19.1425545 19.3159949,20.8914765 17.199637,20.9955046 L17,21.0004 L7,21.0004 C4.85780364,21.0004 3.10892107,19.3163949 3.0048953,17.1999458 L3,17.0003 L3,10.4146 L2.29289,9.70746 C1.90237,9.31693 1.90237,8.68377 2.29289,8.29324 C2.65337923,7.93276 3.22060645,7.90503077 3.61290152,8.21005231 L3.70711,8.29324 L4.41421,9.00035 C4.65067857,9.23681857 4.82181816,9.52640551 4.91601012,9.84103082 L4.95664,10.0003 L15.382,10.0003 L18.1056,4.55311 C18.3526,4.05913 18.9532,3.85891 19.4472,4.1059 Z M17.118,11.0003 L14.882,11.0003 L13.882,13.0003 L9,13.0003 C8.48716857,13.0003 8.06449347,13.386327 8.0067278,13.8836761 L8,14.0003 L8,14.5003 C8,16.4333 9.567,18.0003 11.5,18.0003 C13.0721,18.0003 14.4022,16.9638 14.844,15.5369 L14.8702125,15.4931 L17.118,11.0003 Z M12.9146,15.0003 C12.7087,15.5829 12.1531,16.0003 11.5,16.0003 C10.8971385,16.0003 10.3773538,15.6446456 10.1390083,15.1316988 L10.0854,15.0003 L12.9146,15.0003 Z M9.55469,2.16805 C10.0142,2.4744 10.1384,3.09527 9.83204,3.5548 L9.61651,3.8781 C9.42479,4.16568 9.46271,4.5486 9.7071,4.793 C10.6256,5.71152 10.7681,7.15068 10.0476,8.23151 L9.83205,8.55481 C9.5257,9.01434 8.90483,9.13851 8.4453,8.83216 C7.98577,8.5258 7.8616,7.90493 8.16795,7.44541 L8.38348,7.12211 C8.5752,6.83453 8.53729,6.45161 8.29289,6.20721 C7.37437,5.28869 7.23186,3.84953 7.9524,2.76871 L8.16794,2.44541 C8.47429,1.98588 9.09516,1.8617 9.55469,2.16805 Z M13.5547,2.16805 C14.0142,2.4744 14.1384,3.09527 13.832,3.5548 L13.6165,3.8781 C13.4248,4.16568 13.4627,4.5486 13.7071,4.793 C14.6256,5.71152 14.7681,7.15068 14.0476,8.23151 L13.8321,8.55481 C13.5257,9.01434 12.9048,9.13851 12.4453,8.83216 C11.9858,8.5258 11.8616,7.90493 12.1679,7.44541 L12.3835,7.12211 C12.5752,6.83453 12.5373,6.45161 12.2929,6.20721 C11.3744,5.28869 11.2319,3.84953 11.9524,2.76871 L12.1679,2.44541 C12.4743,1.98588 13.0952,1.8617 13.5547,2.16805 Z"/></g></svg>

<svg xmlns="http://www.w3.org/2000/svg" width="24" height="24"><g fill="none"><path d="M24 0v24H0V0zM12.594 23.258l-.012.002-.071.035-.02.004-.014-.004-.071-.036c-.01-.003-.019 0-.024.006l-.004.01-.017.428.005.02.01.013.104.074.015.004.012-.004.104-.074.012-.016.004-.017-.017-.427c-.002-.01-.009-.017-.016-.018m.264-.113-.014.002-.184.093-.01.01-.003.011.018.43.005.012.008.008.201.092c.012.004.023 0 .029-.008l.004-.014-.034-.614c-.003-.012-.01-.02-.02-.022m-.715.002a.023.023 0 0 0-.027.006l-.006.014-.034.614c0 .012.007.02.017.024l.015-.002.201-.093.01-.008.003-.011.018-.43-.003-.012-.01-.01z"/><path fill="#09244B" d="M19.447 4.106a1 1 0 0 1 .494 1.234l-.047.108L17.618 10h1.425a2 2 0 0 1 .43-.877L19.586 9l.707-.707a1 1 0 0 1 1.497 1.32l-.083.094-.707.708V17a4 4 0 0 1-3.8 3.996L17 21H7a4 4 0 0 1-3.995-3.8L3 17v-6.585l-.707-.708a1 1 0 0 1 1.32-1.497l.094.083.707.707a2 2 0 0 1 .502.841l.04.16h10.426l2.724-5.448a1 1 0 0 1 1.341-.447M17.118 11h-2.236l-1 2H9a1 1 0 0 0-.993.884L8 14v.5a3.5 3.5 0 0 0 6.844 1.037l.026-.044zm-4.203 4a1.5 1.5 0 0 1-2.776.132L10.085 15zM9.555 2.168a1 1 0 0 1 .277 1.387l-.215.323a.725.725 0 0 0 .09.915 2.725 2.725 0 0 1 .34 3.439l-.215.323a1 1 0 0 1-1.664-1.11l.215-.323a.725.725 0 0 0-.09-.915 2.725 2.725 0 0 1-.34-3.438l.215-.324a1 1 0 0 1 1.387-.277m4 0a1 1 0 0 1 .277 1.387l-.216.323a.725.725 0 0 0 .091.915 2.725 2.725 0 0 1 .34 3.439l-.215.323a1 1 0 0 1-1.664-1.11l.216-.323a.725.725 0 0 0-.091-.915 2.725 2.725 0 0 1-.34-3.438l.215-.324a1 1 0 0 1 1.387-.277"/></g></svg>
